public/logos/F9.svg

<?xml version="1.0" encoding="UTF-8"?>
<svg xmlns="http://www.w3.org/2000/svg" xmlns:xlink="http://www.w3.org/1999/xlink" width="176pt" height="23.79pt" viewBox="0 0 176 23.79" version="1.1">
<defs>
<clipPath id="clip1">
  <path d="M 73 0 L 102 0 L 102 23.789062 L 73 23.789062 Z M 73 0 "/>
</clipPath>
<clipPath id="clip2">
  <path d="M 151 0 L 176 0 L 176 23.789062 L 151 23.789062 Z M 151 0 "/>
</clipPath>
<clipPath id="clip3">
  <path d="M 23 0 L 49 0 L 49 23.789062 L 23 23.789062 Z M 23 0 "/>
</clipPath>
<clipPath id="clip4">
  <path d="M 49 0 L 75 0 L 75 23.789062 L 49 23.789062 Z M 49 0 "/>
</clipPath>
<clipPath id="clip5">
  <path d="M 130 0 L 155 0 L 155 23.789062 L 130 23.789062 Z M 130 0 "/>
</clipPath>
<clipPath id="clip6">
  <path d="M 102 0 L 125 0 L 125 23.789062 L 102 23.789062 Z M 102 0 "/>
</clipPath>
<clipPath id="clip7">
  <path d="M 121 0 L 134 0 L 134 23.789062 L 121 23.789062 Z M 121 0 "/>
</clipPath>
<clipPath id="clip8">
  <path d="M 0 16 L 13 16 L 13 23.789062 L 0 23.789062 Z M 0 16 "/>
</clipPath>
</defs>
<g id="surface1">
<g clip-path="url(#clip1)" clip-rule="nonzero">
<path style=" stroke:none;fill-rule:nonzero;fill:rgb(12.780762%,39.814758%,26.203918%);fill-opacity:1;" d="M 91.796875 13.066406 C 92.925781 8.878906 94.058594 4.6875 95.199219 0.46875 C 97.273438 0.46875 99.359375 0.46875 101.511719 0.46875 C 99.460938 8.105469 97.417969 15.707031 95.382812 23.296875 C 94.980469 23.402344 91.148438 23.441406 89.769531 23.355469 C 87.730469 19.011719 85.679688 14.640625 83.582031 10.160156 C 82.933594 12.433594 82.375 14.621094 81.78125 16.796875 C 81.195312 18.96875 80.621094 21.140625 80.042969 23.300781 C 79.65625 23.398438 74.238281 23.414062 73.722656 23.316406 C 75.765625 15.707031 77.808594 8.101562 79.855469 0.476562 C 81.839844 0.476562 83.796875 0.476562 85.820312 0.476562 C 87.796875 4.660156 89.722656 8.890625 91.796875 13.066406 "/>
</g>
<g clip-path="url(#clip2)" clip-rule="nonzero">
<path style=" stroke:none;fill-rule:nonzero;fill:rgb(12.780762%,39.814758%,26.203918%);fill-opacity:1;" d="M 162.574219 5.902344 C 162.066406 7.765625 161.566406 9.582031 161.0625 11.429688 C 161.203125 11.449219 161.300781 11.472656 161.394531 11.472656 C 162.621094 11.476562 163.851562 11.496094 165.078125 11.464844 C 165.914062 11.445312 166.738281 11.292969 167.507812 10.953125 C 168.429688 10.542969 169.140625 9.921875 169.378906 8.890625 C 169.640625 7.75 169.234375 6.617188 167.96875 6.183594 C 167.390625 5.988281 166.789062 5.914062 166.1875 5.90625 C 165.171875 5.898438 164.15625 5.902344 163.140625 5.902344 C 162.964844 5.902344 162.785156 5.902344 162.574219 5.902344 Z M 159.753906 16.402344 C 159.121094 18.753906 158.507812 21.035156 157.894531 23.3125 C 157.507812 23.398438 152.046875 23.410156 151.582031 23.324219 C 151.585938 22.972656 157.40625 1.1875 157.6875 0.488281 C 157.75 0.476562 157.824219 0.457031 157.902344 0.457031 C 161.242188 0.464844 164.582031 0.445312 167.921875 0.496094 C 169.382812 0.519531 170.808594 0.828125 172.15625 1.417969 C 173.480469 2.003906 174.539062 2.890625 175.242188 4.175781 C 175.574219 4.78125 175.777344 5.4375 175.886719 6.117188 C 176.113281 7.59375 176.011719 9.050781 175.496094 10.460938 C 174.949219 11.957031 173.992188 13.128906 172.691406 14.027344 C 171.730469 14.695312 170.683594 15.175781 169.5625 15.507812 C 169.453125 15.539062 169.34375 15.574219 169.234375 15.613281 C 169.207031 15.625 169.1875 15.652344 169.128906 15.699219 C 170.28125 18.222656 171.4375 20.753906 172.601562 23.292969 C 172.210938 23.398438 166.398438 23.425781 165.628906 23.339844 C 165.4375 22.925781 165.234375 22.5 165.046875 22.070312 C 164.3125 20.378906 163.585938 18.683594 162.839844 17 C 162.53125 16.308594 162.671875 16.410156 161.902344 16.402344 C 161.363281 16.398438 160.824219 16.402344 160.28125 16.402344 C 160.121094 16.402344 159.960938 16.402344 159.753906 16.402344 "/>
</g>
<g clip-path="url(#clip3)" clip-rule="nonzero">
<path style=" stroke:none;fill-rule:nonzero;fill:rgb(12.780762%,39.814758%,26.203918%);fill-opacity:1;" d="M 34.992188 5.941406 C 34.40625 7.746094 33.539062 11.070312 33.558594 11.425781 C 33.601562 11.4375 33.648438 11.46875 33.691406 11.46875 C 35.242188 11.445312 36.800781 11.570312 38.347656 11.382812 C 39.078125 11.292969 39.78125 11.078125 40.417969 10.6875 C 41.035156 10.3125 41.511719 9.816406 41.734375 9.105469 C 42.136719 7.835938 41.671875 6.445312 40.035156 6.082031 C 39.574219 5.984375 39.097656 5.921875 38.628906 5.910156 C 37.582031 5.886719 36.535156 5.902344 35.488281 5.90625 C 35.328125 5.90625 35.167969 5.925781 34.992188 5.941406 Z M 23.917969 23.328125 C 25.964844 15.707031 28.011719 8.085938 30.0625 0.453125 C 30.421875 0.453125 30.761719 0.453125 31.097656 0.453125 C 33.800781 0.453125 36.503906 0.453125 39.203125 0.453125 C 40.898438 0.457031 42.5625 0.652344 44.160156 1.257812 C 45.59375 1.804688 46.773438 2.660156 47.554688 4.007812 C 48 4.769531 48.261719 5.59375 48.339844 6.460938 C 48.4375 7.503906 48.425781 8.550781 48.171875 9.582031 C 47.78125 11.195312 46.949219 12.523438 45.679688 13.589844 C 44.609375 14.488281 43.371094 15.0625 42.054688 15.488281 C 41.949219 15.523438 41.835938 15.550781 41.730469 15.589844 C 41.683594 15.605469 41.644531 15.632812 41.550781 15.683594 C 42.09375 16.972656 42.703125 18.230469 43.277344 19.5 C 43.855469 20.773438 44.4375 22.042969 45.035156 23.355469 C 42.667969 23.355469 40.367188 23.355469 38.035156 23.355469 C 37.015625 21.039062 36 18.730469 34.984375 16.421875 C 34.039062 16.421875 33.140625 16.421875 32.179688 16.421875 C 31.824219 17.550781 31.546875 18.71875 31.238281 19.878906 C 30.929688 21.027344 30.609375 22.175781 30.296875 23.308594 C 29.910156 23.394531 24.523438 23.414062 23.917969 23.328125 "/>
</g>
<g clip-path="url(#clip4)" clip-rule="nonzero">
<path style=" stroke:none;fill-rule:nonzero;fill:rgb(12.780762%,39.814758%,26.203918%);fill-opacity:1;" d="M 67.769531 10.710938 C 67.699219 10.257812 67.65625 9.71875 67.523438 9.199219 C 67.078125 7.5 66.003906 6.367188 64.304688 5.898438 C 62.402344 5.371094 60.609375 5.710938 59.074219 6.933594 C 56.769531 8.769531 55.730469 11.195312 56.136719 14.144531 C 56.316406 15.433594 56.933594 16.527344 58.042969 17.273438 C 58.761719 17.753906 59.558594 18.003906 60.421875 18.09375 C 61.777344 18.238281 63.03125 17.96875 64.164062 17.25 C 66.527344 15.757812 67.554688 13.507812 67.769531 10.710938 Z M 60.441406 23.785156 C 58.523438 23.824219 56.679688 23.441406 54.96875 22.546875 C 52.074219 21.03125 50.308594 18.660156 49.738281 15.433594 C 49.292969 12.910156 49.695312 10.496094 50.707031 8.160156 C 51.429688 6.488281 52.457031 5.023438 53.773438 3.769531 C 55.832031 1.808594 58.261719 0.59375 61.085938 0.171875 C 61.960938 0.0429688 62.839844 -0.03125 63.722656 0.0078125 C 66.25 0.117188 68.582031 0.800781 70.574219 2.425781 C 72.285156 3.828125 73.402344 5.617188 73.90625 7.777344 C 74.144531 8.800781 74.25 9.839844 74.1875 10.890625 C 74.089844 12.585938 73.71875 14.210938 73.011719 15.761719 C 72.355469 17.207031 71.484375 18.507812 70.390625 19.648438 C 69.085938 21.007812 67.554688 22.058594 65.804688 22.777344 C 64.089844 23.488281 62.308594 23.828125 60.441406 23.785156 "/>
</g>
<g clip-path="url(#clip5)" clip-rule="nonzero">
<path style=" stroke:none;fill-rule:nonzero;fill:rgb(12.780762%,39.814758%,26.203918%);fill-opacity:1;" d="M 140.359375 9.328125 C 143.996094 9.328125 147.609375 9.328125 151.289062 9.328125 C 150.832031 11.027344 150.394531 12.660156 149.949219 14.320312 C 146.289062 14.320312 142.660156 14.320312 138.984375 14.320312 C 138.65625 15.535156 138.332031 16.726562 137.996094 17.96875 C 142.09375 17.96875 146.148438 17.96875 150.273438 17.96875 C 149.789062 19.800781 149.316406 21.570312 148.84375 23.355469 C 142.675781 23.355469 136.523438 23.355469 130.394531 23.355469 C 130.363281 23.328125 130.347656 23.316406 130.339844 23.304688 C 130.332031 23.292969 130.332031 23.273438 130.332031 23.257812 C 130.339844 23.191406 130.335938 23.125 130.351562 23.0625 C 132.363281 15.582031 134.378906 8.097656 136.394531 0.617188 C 136.40625 0.570312 136.441406 0.53125 136.472656 0.476562 C 142.558594 0.476562 148.640625 0.476562 154.726562 0.476562 C 154.746094 0.832031 153.601562 5.160156 153.320312 5.789062 C 153.160156 5.789062 152.980469 5.789062 152.804688 5.789062 C 149.199219 5.789062 145.597656 5.789062 141.996094 5.789062 C 141.882812 5.789062 141.769531 5.789062 141.652344 5.789062 C 141.300781 5.800781 141.292969 5.800781 141.191406 6.160156 C 140.917969 7.136719 140.65625 8.113281 140.390625 9.085938 C 140.375 9.144531 140.375 9.210938 140.359375 9.328125 "/>
</g>
<g clip-path="url(#clip6)" clip-rule="nonzero">
<path style=" stroke:none;fill-rule:nonzero;fill:rgb(12.780762%,39.814758%,26.203918%);fill-opacity:1;" d="M 111.429688 23.347656 C 109.277344 23.347656 107.1875 23.347656 105.050781 23.347656 C 105.839844 20.429688 106.617188 17.550781 107.390625 14.667969 C 108.160156 11.792969 108.957031 8.925781 109.722656 5.980469 C 107.394531 5.980469 105.144531 5.980469 102.839844 5.980469 C 103.34375 4.121094 103.828125 2.316406 104.324219 0.484375 C 111.007812 0.484375 117.679688 0.484375 124.351562 0.484375 C 124.367188 0.867188 123.597656 3.921875 122.964844 5.960938 C 120.695312 5.960938 118.414062 5.960938 116.089844 5.960938 C 114.53125 11.777344 112.980469 17.554688 111.429688 23.347656 "/>
</g>
<g clip-path="url(#clip7)" clip-rule="nonzero">
<path style=" stroke:none;fill-rule:nonzero;fill:rgb(12.780762%,39.814758%,26.203918%);fill-opacity:1;" d="M 127.429688 23.367188 C 125.316406 23.367188 123.242188 23.367188 121.109375 23.367188 C 123.160156 15.730469 125.203125 8.121094 127.242188 0.527344 C 127.625 0.4375 132.761719 0.410156 133.539062 0.492188 C 133.527344 0.609375 133.535156 0.734375 133.503906 0.851562 C 132.890625 3.152344 132.269531 5.449219 131.652344 7.75 C 130.546875 11.875 129.441406 16.003906 128.335938 20.128906 C 128.070312 21.105469 127.808594 22.082031 127.542969 23.054688 C 127.515625 23.148438 127.476562 23.238281 127.429688 23.367188 "/>
</g>
<path style=" stroke:none;fill-rule:nonzero;fill:rgb(12.780762%,39.814758%,26.203918%);fill-opacity:1;" d="M 4.25 7.621094 C 4.386719 7.09375 4.511719 6.59375 4.648438 6.097656 C 4.914062 5.121094 5.160156 4.136719 5.460938 3.175781 C 5.683594 2.472656 6.003906 1.808594 6.539062 1.273438 C 7.011719 0.804688 7.589844 0.566406 8.238281 0.484375 C 8.496094 0.453125 8.761719 0.457031 9.019531 0.453125 C 14.878906 0.453125 20.738281 0.453125 26.59375 0.453125 C 26.789062 0.453125 26.980469 0.453125 27.222656 0.453125 C 27.1875 0.617188 27.167969 0.722656 27.144531 0.824219 C 26.902344 1.738281 26.675781 2.65625 26.421875 3.566406 C 26.144531 4.566406 25.648438 5.433594 24.828125 6.09375 C 24.179688 6.617188 23.464844 6.890625 22.621094 6.890625 C 17.679688 6.882812 12.738281 6.886719 7.796875 6.886719 C 6.625 6.890625 5.480469 7.007812 4.4375 7.605469 C 4.398438 7.625 4.347656 7.613281 4.25 7.621094 "/>
<path style=" stroke:none;fill-rule:nonzero;fill:rgb(12.780762%,39.814758%,26.203918%);fill-opacity:1;" d="M 2.101562 15.851562 C 2.101562 15.757812 2.082031 15.65625 2.105469 15.566406 C 2.492188 14.167969 2.859375 12.765625 3.296875 11.378906 C 3.464844 10.84375 3.757812 10.335938 4.054688 9.855469 C 4.484375 9.15625 5.15625 8.800781 5.96875 8.730469 C 6.4375 8.6875 6.910156 8.652344 7.386719 8.652344 C 12.769531 8.648438 18.15625 8.652344 23.539062 8.652344 C 23.734375 8.652344 23.925781 8.652344 24.136719 8.652344 C 24.152344 8.746094 24.1875 8.8125 24.171875 8.867188 C 23.855469 9.960938 23.660156 11.09375 23.199219 12.144531 C 22.726562 13.214844 22.070312 14.132812 21.015625 14.703125 C 20.457031 15.007812 19.859375 15.132812 19.222656 15.128906 C 14.671875 15.121094 10.125 15.128906 5.574219 15.121094 C 4.398438 15.121094 3.265625 15.292969 2.210938 15.84375 C 2.183594 15.855469 2.148438 15.847656 2.101562 15.851562 "/>
<g clip-path="url(#clip8)" clip-rule="nonzero">
<path style=" stroke:none;fill-rule:nonzero;fill:rgb(12.780762%,39.814758%,26.203918%);fill-opacity:1;" d="M 0 23.378906 C 0.355469 22.109375 0.664062 20.929688 1.015625 19.761719 C 1.152344 19.3125 1.363281 18.882812 1.589844 18.46875 C 2.144531 17.441406 3.054688 16.976562 4.191406 16.90625 C 4.535156 16.886719 4.878906 16.894531 5.222656 16.894531 C 7.480469 16.894531 9.742188 16.894531 12 16.894531 C 12.175781 16.894531 12.351562 16.90625 12.5625 16.914062 C 12.535156 17.070312 12.523438 17.175781 12.496094 17.28125 C 12.253906 18.179688 12.035156 19.082031 11.761719 19.972656 C 11.480469 20.886719 11.039062 21.722656 10.316406 22.378906 C 9.652344 22.984375 8.878906 23.34375 7.976562 23.363281 C 6.980469 23.386719 5.980469 23.378906 4.980469 23.378906 C 3.527344 23.378906 2.070312 23.378906 0.613281 23.378906 C 0.4375 23.378906 0.257812 23.378906 0 23.378906 "/>
</g>
</g>
</svg>

<svg xmlns="http://www.w3.org/2000/svg" width="176pt" height="31.72" viewBox="0 0 176 23.79"><defs><clipPath id="a"><path d="M73 0h29v23.79H73Zm0 0"/></clipPath><clipPath id="b"><path d="M151 0h25v23.79h-25Zm0 0"/></clipPath><clipPath id="c"><path d="M23 0h26v23.79H23Zm0 0"/></clipPath><clipPath id="d"><path d="M49 0h26v23.79H49Zm0 0"/></clipPath><clipPath id="e"><path d="M130 0h25v23.79h-25Zm0 0"/></clipPath><clipPath id="f"><path d="M102 0h23v23.79h-23Zm0 0"/></clipPath><clipPath id="g"><path d="M121 0h13v23.79h-13Zm0 0"/></clipPath><clipPath id="h"><path d="M0 16h13v7.79H0Zm0 0"/></clipPath></defs><g clip-path="url(#a)"><path d="M91.797 13.066C92.926 8.88 94.059 4.688 95.199.47h6.313c-2.051 7.636-4.094 15.238-6.13 22.828-.402.105-4.234.144-5.612.058-2.04-4.343-4.09-8.714-6.188-13.195-.648 2.274-1.207 4.461-1.8 6.637-.587 2.172-1.16 4.344-1.739 6.504-.387.097-5.805.113-6.32.015 2.043-7.609 4.086-15.214 6.132-22.84h5.965c1.977 4.184 3.903 8.415 5.977 12.59" style="stroke:none;fill-rule:nonzero;fill:#216643;fill-opacity:1"/></g><g clip-path="url(#b)"><path d="M162.574 5.902c-.508 1.864-1.008 3.68-1.512 5.528.141.02.239.043.333.043 1.226.004 2.457.023 3.683-.008.836-.02 1.66-.172 2.43-.512.922-.41 1.633-1.031 1.87-2.062.263-1.141-.144-2.274-1.41-2.707-.577-.196-1.179-.27-1.78-.278-1.016-.008-2.032-.004-3.047-.004zm-2.82 10.5c-.633 2.352-1.246 4.633-1.86 6.91-.386.086-5.847.098-6.312.012.004-.351 5.824-22.136 6.106-22.836.062-.011.136-.031.214-.031 3.34.008 6.68-.012 10.02.04 1.46.023 2.887.331 4.234.921 1.324.586 2.383 1.473 3.086 2.758.332.605.535 1.261.645 1.941.226 1.477.125 2.934-.39 4.344-.548 1.496-1.505 2.668-2.806 3.566a10.8 10.8 0 0 1-3.129 1.48q-.163.048-.328.106c-.027.012-.047.04-.105.086a5590 5590 0 0 0 3.473 7.594c-.391.105-6.204.133-6.973.047-.191-.414-.395-.84-.582-1.27-.734-1.691-1.461-3.386-2.207-5.07-.309-.691-.168-.59-.938-.598-.539-.004-1.078 0-1.62 0z" style="stroke:none;fill-rule:nonzero;fill:#216643;fill-opacity:1"/></g><g clip-path="url(#c)"><path d="M34.992 5.941c-.586 1.805-1.453 5.13-1.433 5.485.043.011.09.043.132.043 1.551-.024 3.11.101 4.657-.086.73-.09 1.433-.305 2.07-.695.617-.376 1.094-.872 1.316-1.583.403-1.27-.062-2.66-1.699-3.023a8 8 0 0 0-1.406-.172c-1.047-.023-2.094-.008-3.14-.004-.16 0-.321.02-.497.035M23.918 23.328 30.063.453h9.14c1.695.004 3.36.2 4.957.805 1.434.547 2.613 1.402 3.395 2.75.445.762.707 1.586.785 2.453.097 1.043.086 2.09-.168 3.121-.39 1.613-1.223 2.941-2.492 4.008-1.07.898-2.309 1.473-3.625 1.898-.106.035-.22.063-.325.102-.046.015-.085.043-.18.094.544 1.289 1.153 2.546 1.727 3.816.578 1.273 1.16 2.543 1.758 3.855h-7q-1.529-3.472-3.05-6.933H32.18c-.356 1.129-.633 2.297-.942 3.457-.308 1.148-.629 2.297-.941 3.43-.387.086-5.774.105-6.379.02" style="stroke:none;fill-rule:nonzero;fill:#216643;fill-opacity:1"/></g><g clip-path="url(#d)"><path d="M67.77 10.71c-.07-.452-.114-.991-.247-1.51-.445-1.7-1.52-2.833-3.218-3.302-1.903-.527-3.696-.187-5.23 1.036-2.305 1.836-3.345 4.261-2.938 7.21.18 1.29.797 2.383 1.906 3.13.719.48 1.516.73 2.379.82 1.355.144 2.61-.125 3.742-.844 2.363-1.492 3.39-3.742 3.606-6.54M60.44 23.786c-1.918.04-3.761-.344-5.472-1.238-2.895-1.516-4.66-3.887-5.23-7.113-.446-2.524-.044-4.938.968-7.274a13.3 13.3 0 0 1 3.066-4.39C55.832 1.809 58.262.594 61.086.172c.875-.129 1.754-.203 2.637-.164 2.527.11 4.859.793 6.851 2.418 1.711 1.402 2.828 3.191 3.332 5.351.239 1.024.344 2.063.281 3.114-.097 1.695-.468 3.32-1.175 4.87a13.8 13.8 0 0 1-2.621 3.887 13.3 13.3 0 0 1-4.586 3.13 13.05 13.05 0 0 1-5.364 1.007" style="stroke:none;fill-rule:nonzero;fill:#216643;fill-opacity:1"/></g><g clip-path="url(#e)"><path d="M140.36 9.328h10.93c-.458 1.7-.895 3.332-1.34 4.992h-10.966l-.988 3.649h12.277c-.484 1.832-.957 3.601-1.43 5.386h-18.448c-.032-.027-.047-.039-.055-.05s-.008-.032-.008-.047c.008-.067.004-.133.02-.195Q133.37 11.84 136.395.616c.011-.047.046-.086.078-.14h18.254c.02.355-1.125 4.683-1.407 5.312h-11.668c-.351.012-.359.012-.46.371-.274.977-.536 1.953-.801 2.926-.016.059-.016.125-.032.242" style="stroke:none;fill-rule:nonzero;fill:#216643;fill-opacity:1"/></g><g clip-path="url(#f)"><path d="M111.43 23.348h-6.38c.79-2.918 1.567-5.797 2.34-8.68.77-2.875 1.567-5.742 2.333-8.688h-6.883c.504-1.859.988-3.664 1.484-5.496h20.028c.015.383-.754 3.438-1.387 5.477h-6.875c-1.559 5.816-3.11 11.594-4.66 17.387" style="stroke:none;fill-rule:nonzero;fill:#216643;fill-opacity:1"/></g><g clip-path="url(#g)"><path d="M127.43 23.367h-6.32l6.132-22.84c.383-.09 5.52-.117 6.297-.035-.012.117-.004.242-.035.36-.613 2.3-1.234 4.597-1.852 6.898l-3.316 12.379c-.266.976-.527 1.953-.793 2.926-.027.093-.066.183-.113.312" style="stroke:none;fill-rule:nonzero;fill:#216643;fill-opacity:1"/></g><path d="M4.25 7.621c.137-.527.262-1.027.398-1.523.266-.977.512-1.961.813-2.922.223-.703.543-1.367 1.078-1.903.473-.468 1.05-.707 1.7-.789.257-.03.523-.027.78-.03h18.204c-.035.163-.055.269-.078.37-.243.914-.47 1.832-.723 2.742-.277 1-.774 1.868-1.594 2.528-.648.523-1.363.797-2.207.797-4.941-.008-9.883-.004-14.824-.004-1.172.004-2.317.12-3.36.718-.039.02-.09.008-.187.016M2.102 15.852c0-.094-.02-.196.003-.286.387-1.398.754-2.8 1.192-4.187.168-.535.46-1.043.758-1.524.43-.699 1.101-1.054 1.914-1.125.468-.043.941-.078 1.418-.078 5.383-.004 10.77 0 16.152 0h.598c.015.094.05.16.035.215-.317 1.094-.512 2.227-.973 3.278-.472 1.07-1.129 1.988-2.183 2.558-.559.305-1.157.43-1.793.426-4.551-.008-9.098 0-13.649-.008-1.176 0-2.308.172-3.363.723-.027.011-.063.004-.11.008" style="stroke:none;fill-rule:nonzero;fill:#216643;fill-opacity:1"/><g clip-path="url(#h)"><path d="M0 23.379c.355-1.27.664-2.45 1.016-3.617.136-.45.347-.88.574-1.293.555-1.028 1.465-1.492 2.601-1.563.344-.02.688-.011 1.032-.011H12c.176 0 .352.011.563.02-.028.155-.04.26-.067.366-.242.899-.46 1.801-.734 2.692-.282.914-.723 1.75-1.446 2.406-.664.605-1.437.965-2.34.984-.996.024-1.996.016-2.996.016H0" style="stroke:none;fill-rule:nonzero;fill:#216643;fill-opacity:1"/></g></svg>
